app/public/logos/ibtc.svg

<svg xmlns="http://www.w3.org/2000/svg" width="350pt" height="350pt" style="isolation:isolate" viewBox="0 0 350 350"><defs><clipPath id="a"><path d="M0 0h350v350H0z"/></clipPath></defs><g clip-path="url(#a)"><path d="M0 0h350v350H0z" style="fill:#1b0a2c"/><g fill="#FFF" fill-rule="evenodd"><path d="m303.352 270.117-63.962-39.473c-.726-.462-1.518-.66-2.376-.66H60.048c-2.047 0-3.829 1.321-4.357 3.301s.264 4.026 1.98 5.082l63.962 39.473c.726.462 1.518.66 2.376.66h176.967c2.046 0 3.828-1.32 4.356-3.3.528-1.915-.264-4.027-1.98-5.083m-178.089-.66-49.241-30.364h159.672l49.242 30.364zM112.92 120.016h176.966c2.047 0 3.829-1.321 4.357-3.301s-.264-4.026-1.98-5.082L228.301 72.16c-.726-.462-1.518-.66-2.376-.66H49.024c-2.046 0-3.828 1.32-4.356 3.3-.528 1.981.264 4.027 1.98 5.083l63.962 39.473c.66.396 1.518.66 2.31.66m111.751-39.473 49.241 30.364H114.24L64.998 80.543z"/></g><path fill="#F7931A" d="M223.584 175.405c-.221 26.834-22.156 48.408-48.993 48.186-26.826-.224-48.401-22.16-48.175-48.993.218-26.836 22.152-48.411 48.981-48.189 26.835.222 48.409 22.161 48.187 48.996"/><path fill="#FFF" d="M194.214 163.255c-.572-6.514-6.172-8.742-13.261-9.423l.075-9.028-5.496-.045-.072 8.791c-1.445-.012-2.922.004-4.39.021l.075-8.849-5.493-.045-.077 9.026c-1.19.014-2.359.027-3.498.018v-.028l-7.58-.065-.047 5.869s4.059-.044 3.991.03c2.226.02 2.939 1.318 3.141 2.435l-.085 10.285c.154.002.354.01.581.043q-.276-.003-.581-.004l-.12 14.409c-.104.7-.525 1.813-2.08 1.803.07.063-3.995-.034-3.995-.034l-1.146 6.554 7.151.059c1.331.013 2.641.046 3.926.065l-.073 9.131 5.489.047.075-9.035c1.507.043 2.966.068 4.39.078l-.077 8.993 5.496.045.077-9.115c9.243-.454 15.729-2.728 16.604-11.397.706-6.981-2.554-10.126-7.789-11.429 3.2-1.596 5.216-4.438 4.789-9.205m-7.85 19.462c-.053 6.824-11.731 5.951-15.456 5.923l.102-12.098c3.725.032 15.413-.943 15.354 6.175m-2.415-17.091c-.053 6.209-9.791 5.403-12.894 5.378l.092-10.973c3.102.026 12.855-.88 12.802 5.595"/></g></svg>

<?xml version="1.0" encoding="UTF-8" standalone="no"?><!-- Generator: Gravit.io --><svg xmlns="http://www.w3.org/2000/svg" xmlns:xlink="http://www.w3.org/1999/xlink" style="isolation:isolate" viewBox="0 0 350 350" width="350pt" height="350pt"><defs><clipPath id="_clipPath_SzpqyO7E2s8kPimHBZXZEVXt17Y845bU"><rect width="350" height="350"/></clipPath></defs><g clip-path="url(#_clipPath_SzpqyO7E2s8kPimHBZXZEVXt17Y845bU)"><rect width="350" height="350" style="fill:rgb(27,10,44)"/><g><path d=" M 303.352 270.117 L 239.39 230.644 C 238.664 230.182 237.872 229.984 237.014 229.984 L 60.048 229.984 C 58.001 229.984 56.219 231.305 55.691 233.285 C 55.163 235.265 55.955 237.311 57.671 238.367 L 121.633 277.84 C 122.359 278.302 123.151 278.5 124.009 278.5 L 300.976 278.5 C 303.022 278.5 304.804 277.18 305.332 275.2 C 305.86 273.285 305.068 271.173 303.352 270.117 Z  M 125.263 269.457 L 76.022 239.093 L 235.694 239.093 L 284.936 269.457 L 125.263 269.457 Z " fill-rule="evenodd" fill="rgb(255,255,255)"/><path d=" M 112.92 120.016 L 289.886 120.016 C 291.933 120.016 293.715 118.695 294.243 116.715 C 294.771 114.735 293.979 112.689 292.263 111.633 L 228.301 72.16 C 227.575 71.698 226.783 71.5 225.925 71.5 L 49.024 71.5 C 46.978 71.5 45.196 72.82 44.668 74.8 C 44.14 76.781 44.932 78.827 46.648 79.883 L 110.61 119.356 C 111.27 119.752 112.128 120.016 112.92 120.016 Z  M 224.671 80.543 L 273.912 110.907 L 114.24 110.907 L 64.998 80.543 L 224.671 80.543 Z " fill-rule="evenodd" fill="rgb(255,255,255)"/></g><g><g><path d=" M 223.584 175.405 C 223.363 202.239 201.428 223.813 174.591 223.591 C 147.765 223.367 126.19 201.431 126.416 174.598 C 126.634 147.762 148.568 126.187 175.397 126.409 C 202.232 126.631 223.806 148.57 223.584 175.405 Z " fill="rgb(247,147,26)"/><path d=" M 194.214 163.255 C 193.642 156.741 188.042 154.513 180.953 153.832 L 181.028 144.804 L 175.532 144.759 L 175.46 153.55 C 174.015 153.538 172.538 153.554 171.07 153.571 L 171.145 144.722 L 165.652 144.677 L 165.575 153.703 C 164.385 153.717 163.216 153.73 162.077 153.721 L 162.077 153.693 L 154.497 153.628 L 154.45 159.497 C 154.45 159.497 158.509 159.453 158.441 159.527 C 160.667 159.547 161.38 160.845 161.582 161.962 L 161.497 172.247 C 161.651 172.249 161.851 172.257 162.078 172.29 C 161.895 172.289 161.699 172.286 161.497 172.286 L 161.377 186.695 C 161.273 187.395 160.852 188.508 159.297 188.498 C 159.367 188.561 155.302 188.464 155.302 188.464 L 154.156 195.018 L 161.307 195.077 C 162.638 195.09 163.948 195.123 165.233 195.142 L 165.16 204.273 L 170.649 204.32 L 170.724 195.285 C 172.231 195.328 173.69 195.353 175.114 195.363 L 175.037 204.356 L 180.533 204.401 L 180.61 195.286 C 189.853 194.832 196.339 192.558 197.214 183.889 C 197.92 176.908 194.66 173.763 189.425 172.46 C 192.625 170.864 194.641 168.022 194.214 163.255 Z  M 186.364 182.717 C 186.311 189.541 174.633 188.668 170.908 188.64 L 171.01 176.542 C 174.735 176.574 186.423 175.599 186.364 182.717 Z  M 183.949 165.626 C 183.896 171.835 174.158 171.029 171.055 171.004 L 171.147 160.031 C 174.249 160.057 184.002 159.151 183.949 165.626 Z " fill="rgb(255,255,255)"/></g></g></g></svg>
